icons/src/scalable/default/hicolor/gnome-music.svg

<?xml version="1.0" encoding="UTF-8" standalone="no"?>
<!-- Created with Inkscape (http://www.inkscape.org/) -->

<svg
   xmlns:dc="http://purl.org/dc/elements/1.1/"
   xmlns:cc="http://creativecommons.org/ns#"
   xmlns:rdf="http://www.w3.org/1999/02/22-rdf-syntax-ns#"
   xmlns:svg="http://www.w3.org/2000/svg"
   xmlns="http://www.w3.org/2000/svg"
   xmlns:xlink="http://www.w3.org/1999/xlink"
   xmlns:sodipodi="http://sodipodi.sourceforge.net/DTD/sodipodi-0.dtd"
   xmlns:inkscape="http://www.inkscape.org/namespaces/inkscape"
   width="1024"
   height="1024"
   id="svg2"
   version="1.1"
   inkscape:version="0.92.4 (5da689c313, 2019-01-14)"
   sodipodi:docname="gnome-music.svg">
  <defs
     id="defs4">
    <linearGradient
       inkscape:collect="always"
       id="linearGradient864">
      <stop
         style="stop-color:#fd648b;stop-opacity:1"
         offset="0"
         id="stop860" />
      <stop
         style="stop-color:#f6336e;stop-opacity:1"
         offset="1"
         id="stop862" />
    </linearGradient>
    <linearGradient
       id="linearGradient860">
      <stop
         id="stop854"
         offset="0"
         style="stop-color:#ff7896;stop-opacity:1" />
      <stop
         style="stop-color:#f52869;stop-opacity:1"
         offset="0.5"
         id="stop856" />
      <stop
         id="stop858"
         offset="1"
         style="stop-color:#e41249;stop-opacity:1;" />
    </linearGradient>
    <linearGradient
       id="linearGradient855">
      <stop
         style="stop-color:#ffffff;stop-opacity:1"
         offset="0"
         id="stop851" />
      <stop
         style="stop-color:#d7d7d7;stop-opacity:1"
         offset="1"
         id="stop853" />
    </linearGradient>
    <linearGradient
       id="linearGradient848">
      <stop
         id="stop844"
         offset="0"
         style="stop-color:#ffffff;stop-opacity:1" />
      <stop
         id="stop846"
         offset="1"
         style="stop-color:#d7d7d7;stop-opacity:1" />
    </linearGradient>
    <inkscape:perspective
       sodipodi:type="inkscape:persp3d"
       inkscape:vp_x="13.534465 : 111.04854 : 1"
       inkscape:vp_y="0 : 1000 : 0"
       inkscape:vp_z="213.53447 : 111.04854 : 1"
       inkscape:persp3d-origin="113.53447 : 77.71521 : 1"
       id="perspective3135" />
    <linearGradient
       id="linearGradient4829">
      <stop
         style="stop-color:#f4fbfc;stop-opacity:1;"
         offset="0"
         id="stop4831" />
      <stop
         style="stop-color:#d6d6d6;stop-opacity:1;"
         offset="1"
         id="stop4833" />
    </linearGradient>
    <clipPath
       clipPathUnits="userSpaceOnUse"
       id="clipPath4282">
      <rect
         style="color:#000000;display:inline;overflow:visible;visibility:visible;fill:#4d4d4d;fill-opacity:1;fill-rule:nonzero;stroke:none;stroke-width:9.13434315;marker:none;enable-background:accumulate"
         id="rect4284"
         width="246.875"
         height="234.375"
         x="462.5"
         y="1646.1122"
         ry="17"
         rx="17" />
    </clipPath>
    <linearGradient
       inkscape:collect="always"
       xlink:href="#linearGradient5423"
       id="linearGradient5429"
       x1="408.66196"
       y1="44.604382"
       x2="408.66196"
       y2="562.04968"
       gradientUnits="userSpaceOnUse" />
    <linearGradient
       id="linearGradient5423">
      <stop
         style="stop-color:#ff8876;stop-opacity:1;"
         offset="0"
         id="stop5425" />
      <stop
         id="stop19693"
         offset="0.5"
         style="stop-color:#f52834;stop-opacity:1;" />
      <stop
         style="stop-color:#e41249;stop-opacity:1;"
         offset="1"
         id="stop5427" />
    </linearGradient>
    <linearGradient
       inkscape:collect="always"
       xlink:href="#linearGradient860"
       id="linearGradient5473"
       x1="101.80658"
       y1="-71.838455"
       x2="99.741959"
       y2="538.47058"
       gradientUnits="userSpaceOnUse"
       gradientTransform="matrix(4.7050002,0,0,4.7050002,41.000038,70.362128)" />
    <linearGradient
       inkscape:collect="always"
       xlink:href="#linearGradient3986"
       id="linearGradient3992"
       x1="78.5625"
       y1="993.6615"
       x2="120.28125"
       y2="993.6615"
       gradientUnits="userSpaceOnUse" />
    <linearGradient
       inkscape:collect="always"
       id="linearGradient3986">
      <stop
         style="stop-color:#000000;stop-opacity:1;"
         offset="0"
         id="stop3988" />
      <stop
         style="stop-color:#000000;stop-opacity:0;"
         offset="1"
         id="stop3990" />
    </linearGradient>
    <linearGradient
       inkscape:collect="always"
       xlink:href="#linearGradient5423-1"
       id="linearGradient5473-2"
       x1="99.036476"
       y1="-0.50471628"
       x2="99.036476"
       y2="199.83986"
       gradientUnits="userSpaceOnUse" />
    <linearGradient
       id="linearGradient5423-1">
      <stop
         style="stop-color:#51b9db;stop-opacity:1;"
         offset="0"
         id="stop5425-2" />
      <stop
         style="stop-color:#2fabd4;stop-opacity:1;"
         offset="1"
         id="stop5427-3" />
    </linearGradient>
    <linearGradient
       y2="199.83986"
       x2="99.036476"
       y1="-0.50471628"
       x1="99.036476"
       gradientUnits="userSpaceOnUse"
       id="linearGradient4119"
       xlink:href="#linearGradient5423-1"
       inkscape:collect="always" />
    <linearGradient
       inkscape:collect="always"
       xlink:href="#linearGradient4829"
       id="linearGradient4159"
       x1="100"
       y1="852.36218"
       x2="100"
       y2="1052.3622"
       gradientUnits="userSpaceOnUse" />
    <linearGradient
       inkscape:collect="always"
       xlink:href="#linearGradient864"
       id="linearGradient866"
       x1="520"
       y1="32.362179"
       x2="520"
       y2="1052.3622"
       gradientUnits="userSpaceOnUse"
       gradientTransform="matrix(0.96078431,0,0,0.96078431,20.078431,21.190671)" />
    <filter
       style="color-interpolation-filters:sRGB"
       inkscape:label="Drop Shadow"
       id="filter1053">
      <feFlood
         flood-opacity="0.294118"
         flood-color="rgb(0,0,0)"
         result="flood"
         id="feFlood1042" />
      <feComposite
         in="flood"
         in2="SourceGraphic"
         operator="in"
         result="composite1"
         id="feComposite1044" />
      <feGaussianBlur
         in="composite1"
         stdDeviation="3"
         result="blur"
         id="feGaussianBlur1047" />
      <feOffset
         dx="0"
         dy="3"
         result="offset"
         id="feOffset1049" />
      <feComposite
         in="SourceGraphic"
         in2="offset"
         operator="over"
         result="composite2"
         id="feComposite1051" />
    </filter>
    <linearGradient
       id="linearGradient940">
      <stop
         id="stop936"
         offset="0"
         style="stop-color:#f6f7f7;stop-opacity:1" />
      <stop
         id="stop938"
         offset="1"
         style="stop-color:#dce7f0;stop-opacity:1" />
    </linearGradient>
    <filter
       style="color-interpolation-filters:sRGB;"
       inkscape:label="Drop Shadow"
       id="filter973">
      <feFlood
         flood-opacity="0.294118"
         flood-color="rgb(0,0,0)"
         result="flood"
         id="feFlood963" />
      <feComposite
         in="flood"
         in2="SourceGraphic"
         operator="in"
         result="composite1"
         id="feComposite965" />
      <feGaussianBlur
         in="composite1"
         stdDeviation="3"
         result="blur"
         id="feGaussianBlur967" />
      <feOffset
         dx="0"
         dy="3"
         result="offset"
         id="feOffset969" />
      <feComposite
         in="SourceGraphic"
         in2="offset"
         operator="over"
         result="composite2"
         id="feComposite971" />
    </filter>
    <linearGradient
       inkscape:collect="always"
       xlink:href="#linearGradient940"
       id="linearGradient1112"
       x1="179.46367"
       y1="587.10498"
       x2="729.46368"
       y2="587.10498"
       gradientUnits="userSpaceOnUse"
       gradientTransform="translate(57.536325,-46.742771)" />
    <linearGradient
       inkscape:collect="always"
       xlink:href="#linearGradient1197"
       id="linearGradient1199"
       x1="540.14288"
       y1="29.770346"
       x2="540.14288"
       y2="1054.9744"
       gradientUnits="userSpaceOnUse"
       gradientTransform="matrix(0.99492386,0,0,0.99492386,2.59902,2.7429474)" />
    <linearGradient
       inkscape:collect="always"
       id="linearGradient1197">
      <stop
         style="stop-color:#ffffff;stop-opacity:0.58823532"
         offset="0"
         id="stop1193" />
      <stop
         style="stop-color:#ffffff;stop-opacity:0"
         offset="1"
         id="stop1195" />
    </linearGradient>
  </defs>
  <sodipodi:namedview
     id="base"
     pagecolor="#ffffff"
     bordercolor="#666666"
     borderopacity="1.0"
     inkscape:pageopacity="0.0"
     inkscape:pageshadow="2"
     inkscape:zoom="0.71679688"
     inkscape:cx="260.18529"
     inkscape:cy="502.23433"
     inkscape:document-units="px"
     inkscape:current-layer="layer1"
     showgrid="true"
     inkscape:window-width="1920"
     inkscape:window-height="958"
     inkscape:window-x="0"
     inkscape:window-y="25"
     inkscape:window-maximized="1"
     inkscape:snap-from-guide="true"
     showguides="true"
     inkscape:guide-bbox="true"
     inkscape:pagecheckerboard="true">
    <sodipodi:guide
       position="200,0"
       orientation="-200,0"
       id="guide3766"
       inkscape:locked="false" />
    <sodipodi:guide
       position="0,200"
       orientation="200,0"
       id="guide3127"
       inkscape:locked="false" />
    <sodipodi:guide
       position="0,-2.6171874e-06"
       orientation="0,100"
       id="guide3129"
       inkscape:locked="false" />
    <sodipodi:guide
       position="100,-2.6171874e-06"
       orientation="-200,0"
       id="guide3131"
       inkscape:locked="false" />
    <sodipodi:guide
       position="100,200"
       orientation="0,-100"
       id="guide3133"
       inkscape:locked="false" />
    <inkscape:grid
       type="xygrid"
       id="grid847" />
  </sodipodi:namedview>
  <metadata
     id="metadata7">
    <rdf:RDF>
      <cc:Work
         rdf:about="">
        <dc:format>image/svg+xml</dc:format>
        <dc:type
           rdf:resource="http://purl.org/dc/dcmitype/StillImage" />
        <dc:title />
      </cc:Work>
    </rdf:RDF>
  </metadata>
  <g
     inkscape:label="Layer 1"
     inkscape:groupmode="layer"
     id="layer1"
     transform="translate(0,-28.36218)">
    <circle
       style="color:#000000;display:inline;overflow:visible;visibility:visible;fill:url(#linearGradient866);fill-opacity:1;fill-rule:nonzero;stroke:none;stroke-width:44.75828171;marker:none;enable-background:accumulate"
       id="path4188"
       cx="512"
       cy="540.36218"
       r="490" />
    <circle
       style="color:#000000;display:inline;overflow:visible;visibility:visible;fill:url(#linearGradient5473);fill-opacity:1;fill-rule:nonzero;stroke:none;stroke-width:80;marker:none;enable-background:accumulate;stroke-miterlimit:4;stroke-dasharray:none;paint-order:stroke markers fill;stroke-opacity:1"
       id="path4188-6"
       cx="511.5"
       cy="540.86218"
       r="470.5" />
    <path
       inkscape:connector-curvature="0"
       d="m 672.2495,505.11934 c -63.28075,0 -114.75052,51.48164 -114.75052,114.75051 0,63.26888 51.46977,114.73864 114.75052,114.73864 63.28075,0 114.7505,-51.46976 114.7505,-114.73864 0,-19.75223 -5.02115,-38.36492 -13.85267,-54.62727 V 295.41804 c 0,-8.16679 -3.41865,-15.92999 -9.36569,-21.25976 -5.93517,-5.35352 -14.01886,-7.89378 -22.17378,-7.02724 l -285.0067,31.05279 c -15.52639,1.68559 -27.69349,15.22964 -27.69349,30.86287 V 614.31454 C 408.50257,595.72559 381.47382,584.27072 351.75051,584.27072 288.46976,584.25882 237,635.72862 237,698.99749 c 0,63.26888 51.46976,114.76238 114.75051,114.76238 63.28074,0 114.75051,-51.4935 114.75051,-114.76238 0,-8.85527 -1.10394,-17.43752 -3.01507,-25.71114 h 1.03272 V 333.15383 L 737.53633,303.40678 V 525.61941 C 718.983,512.7401 696.50058,505.11934 672.2495,505.11934 Z M 351.75051,778.14887 c -43.63535,0 -79.13952,-35.51603 -79.13952,-79.15138 0,-43.63534 35.50417,-79.12764 79.13952,-79.12764 43.63534,0 79.13951,35.4923 79.13951,79.12764 0,43.63535 -35.4923,79.15138 -79.13951,79.15138 z M 672.2495,698.99749 c -43.63535,0 -79.13951,-35.49229 -79.13951,-79.12764 0,-43.63534 35.50417,-79.15138 79.13951,-79.15138 43.63535,0 79.1395,35.51604 79.1395,79.15138 0,43.63535 -35.49229,79.12764 -79.1395,79.12764 z"
       id="path1022"
       style="fill:url(#linearGradient1112);fill-opacity:1;stroke-width:11.87033272" />
    <g
       id="g1028"
       transform="matrix(11.870333,0,0,11.870333,252.48133,264.57071)" />
    <g
       id="g1030"
       transform="matrix(11.870333,0,0,11.870333,252.48133,264.57071)" />
    <g
       id="g1032"
       transform="matrix(11.870333,0,0,11.870333,252.48133,264.57071)" />
    <g
       id="g1034"
       transform="matrix(11.870333,0,0,11.870333,252.48133,264.57071)" />
    <g
       id="g1036"
       transform="matrix(11.870333,0,0,11.870333,252.48133,264.57071)" />
    <g
       id="g1038"
       transform="matrix(11.870333,0,0,11.870333,252.48133,264.57071)" />
    <g
       id="g1040"
       transform="matrix(11.870333,0,0,11.870333,252.48133,264.57071)" />
    <g
       id="g1042"
       transform="matrix(11.870333,0,0,11.870333,252.48133,264.57071)" />
    <g
       id="g1044"
       transform="matrix(11.870333,0,0,11.870333,252.48133,264.57071)" />
    <g
       id="g1046"
       transform="matrix(11.870333,0,0,11.870333,252.48133,264.57071)" />
    <g
       id="g1048"
       transform="matrix(11.870333,0,0,11.870333,252.48133,264.57071)" />
    <g
       id="g1050"
       transform="matrix(11.870333,0,0,11.870333,252.48133,264.57071)" />
    <g
       id="g1052"
       transform="matrix(11.870333,0,0,11.870333,252.48133,264.57071)" />
    <g
       id="g1054"
       transform="matrix(11.870333,0,0,11.870333,252.48133,264.57071)" />
    <g
       id="g1056"
       transform="matrix(11.870333,0,0,11.870333,252.48133,264.57071)" />
    <circle
       r="487.5127"
       cy="540.36218"
       cx="512"
       id="circle1191"
       style="color:#000000;display:inline;overflow:visible;visibility:visible;fill:none;fill-opacity:1;fill-rule:nonzero;stroke:url(#linearGradient1199);stroke-width:4.9749999;stroke-miterlimit:4;stroke-dasharray:none;marker:none;enable-background:accumulate" />
  </g>
</svg>

<svg version="1.1" viewBox="0 0 1024 1024" xmlns="http://www.w3.org/2000/svg" xmlns:xlink="http://www.w3.org/1999/xlink">
 <defs>
  <linearGradient id="b" x1="101.81" x2="99.742" y1="-71.838" y2="538.47" gradientTransform="matrix(4.705 0 0 4.705 41 70.362)" gradientUnits="userSpaceOnUse">
   <stop stop-color="#ff7896" offset="0"/>
   <stop stop-color="#f52869" offset=".5"/>
   <stop stop-color="#e41249" offset="1"/>
  </linearGradient>
  <linearGradient id="a" x1="520" x2="520" y1="32.362" y2="1052.4" gradientTransform="matrix(.96078 0 0 .96078 20.078 21.191)" gradientUnits="userSpaceOnUse">
   <stop stop-color="#fd648b" offset="0"/>
   <stop stop-color="#f6336e" offset="1"/>
  </linearGradient>
  <linearGradient id="d" x1="179.46" x2="729.46" y1="587.1" y2="587.1" gradientTransform="translate(57.536 -46.743)" gradientUnits="userSpaceOnUse">
   <stop stop-color="#f6f7f7" offset="0"/>
   <stop stop-color="#dce7f0" offset="1"/>
  </linearGradient>
  <linearGradient id="c" x1="540.14" x2="540.14" y1="29.77" y2="1055" gradientTransform="matrix(.99492 0 0 .99492 2.599 2.7429)" gradientUnits="userSpaceOnUse">
   <stop stop-color="#fff" stop-opacity=".58824" offset="0"/>
   <stop stop-color="#fff" stop-opacity="0" offset="1"/>
  </linearGradient>
 </defs>
 <g transform="translate(0 -28.362)">
  <g>
   <circle cx="512" cy="540.36" r="490" color="#000000" fill="url(#a)"/>
   <circle cx="511.5" cy="540.86" r="470.5" color="#000000" fill="url(#b)" style="paint-order:stroke markers fill"/>
   <path d="m672.25 505.12c-63.281 0-114.75 51.482-114.75 114.75 0 63.269 51.47 114.74 114.75 114.74s114.75-51.47 114.75-114.74c0-19.752-5.0212-38.365-13.853-54.627v-269.82c0-8.1668-3.4186-15.93-9.3657-21.26-5.9352-5.3535-14.019-7.8938-22.174-7.0272l-285.01 31.053c-15.526 1.6856-27.693 15.23-27.693 30.863v285.27c-20.405-18.589-47.434-30.044-77.157-30.044-63.281-0.0119-114.75 51.458-114.75 114.73 0 63.269 51.47 114.76 114.75 114.76 63.281 0 114.75-51.494 114.75-114.76 0-8.8553-1.1039-17.438-3.0151-25.711h1.0327v-340.13l273.02-29.747v222.21c-18.553-12.879-41.036-20.5-65.287-20.5zm-320.5 273.03c-43.635 0-79.14-35.516-79.14-79.151 0-43.635 35.504-79.128 79.14-79.128 43.635 0 79.14 35.492 79.14 79.128 0 43.635-35.492 79.151-79.14 79.151zm320.5-79.151c-43.635 0-79.14-35.492-79.14-79.128 0-43.635 35.504-79.151 79.14-79.151 43.635 0 79.14 35.516 79.14 79.151 0 43.635-35.492 79.128-79.14 79.128z" fill="url(#d)" stroke-width="11.87"/>
  </g>
  <circle cx="512" cy="540.36" r="487.51" color="#000000" fill="none" stroke="url(#c)" stroke-width="4.975"/>
 </g>
</svg>
